build/img/paying/paying__advice-2.svg

<svg width="69" height="93" viewBox="0 0 69 93" fill="none" xmlns="http://www.w3.org/2000/svg">
<g id="Frame 46">
<g id="Group 7">
<g id="Union">
<mask id="path-1-inside-1_375_524" fill="white">
<path fill-rule="evenodd" clip-rule="evenodd" d="M4 0C1.79086 0 0 1.79086 0 4V72.772C0 74.9811 1.79086 76.772 4 76.772H65C67.2091 76.772 69 74.9811 69 72.772V4C69 1.79086 67.2091 0 65 0H4ZM55.6797 92.6951L55.6797 76.772H36.965L55.6797 92.6951Z"/>
</mask>
<path d="M55.6797 76.772L58.6797 76.772L58.6797 73.772H55.6797V76.772ZM55.6797 92.6951L53.7357 94.9799L58.6797 99.1865L58.6797 92.6951L55.6797 92.6951ZM36.965 76.772V73.772H28.8095L35.0209 79.0569L36.965 76.772ZM3 4C3 3.44772 3.44771 3 4 3V-3C0.134008 -3 -3 0.134004 -3 4H3ZM3 72.772V4H-3V72.772H3ZM4 73.772C3.44772 73.772 3 73.3243 3 72.772H-3C-3 76.638 0.134004 79.772 4 79.772V73.772ZM65 73.772H4V79.772H65V73.772ZM66 72.772C66 73.3243 65.5523 73.772 65 73.772V79.772C68.866 79.772 72 76.638 72 72.772H66ZM66 4V72.772H72V4H66ZM65 3C65.5523 3 66 3.44772 66 4H72C72 0.134006 68.866 -3 65 -3V3ZM4 3H65V-3H4V3ZM52.6797 76.772L52.6797 92.6951L58.6797 92.6951L58.6797 76.772L52.6797 76.772ZM36.965 79.772H55.6797V73.772H36.965V79.772ZM57.6238 90.4102L38.909 74.4871L35.0209 79.0569L53.7357 94.9799L57.6238 90.4102Z" fill="#202020" mask="url(#path-1-inside-1_375_524)"/>
</g>
<g id="Group 6">
<path id="Vector" d="M31.0011 13.0465C30.9746 12.4766 31.4295 12 32 12H37.9048C38.4753 12 38.9302 12.4766 38.9037 13.0465L36.9968 54.0465C36.9719 54.5801 36.5321 55 35.9978 55H33.907C33.3727 55 32.9329 54.5801 32.908 54.0465L31.0011 13.0465Z" fill="#FF4505"/>
<path id="Vector_2" d="M32.9521 64C32.9521 64.5523 33.3998 65 33.9521 65H35.9521C36.5044 65 36.9521 64.5523 36.9521 64V62C36.9521 61.4477 36.5044 61 35.9521 61H33.9521C33.3998 61 32.9521 61.4477 32.9521 62V64Z" fill="#FF4505"/>
</g>
</g>
</g>
</svg>

<svg width="69" height="93" fill="none" xmlns="http://www.w3.org/2000/svg"><g id="Frame 46"><g id="Group 7"><g id="Union"><mask id="path-1-inside-1_375_524" fill="#fff"><path fill-rule="evenodd" clip-rule="evenodd" d="M4 0a4 4 0 00-4 4v68.772a4 4 0 004 4h61a4 4 0 004-4V4a4 4 0 00-4-4H4zm51.68 92.695V76.772H36.965L55.68 92.695z"/></mask><path d="M55.68 76.772h3v-3h-3v3zm0 15.923l-1.944 2.285 4.944 4.206v-6.49h-3zM36.965 76.772v-3h-8.156l6.212 5.285 1.944-2.285zM3 4a1 1 0 011-1v-6a7 7 0 00-7 7h6zm0 68.772V4h-6v68.772h6zm1 1a1 1 0 01-1-1h-6a7 7 0 007 7v-6zm61 0H4v6h61v-6zm1-1a1 1 0 01-1 1v6a7 7 0 007-7h-6zM66 4v68.772h6V4h-6zm-1-1a1 1 0 011 1h6a7 7 0 00-7-7v6zM4 3h61v-6H4v6zm48.68 73.772v15.923h6V76.772h-6zm-15.715 3H55.68v-6H36.965v6zM57.624 90.41L38.909 74.487l-3.888 4.57L53.736 94.98l3.888-4.57z" fill="#202020" mask="url(#path-1-inside-1_375_524)"/></g><g id="Group 6" fill="#FF4505"><path id="Vector" d="M31.001 13.046A1 1 0 0132 12h5.905a1 1 0 01.999 1.046l-1.907 41a1 1 0 01-1 .954h-2.09a1 1 0 01-.999-.953l-1.907-41z"/><path id="Vector_2" d="M32.952 64a1 1 0 001 1h2a1 1 0 001-1v-2a1 1 0 00-1-1h-2a1 1 0 00-1 1v2z"/></g></g></g></svg>
